X:1
T:[ID 10-119]
T:[ID 10-119]
T:Bezeichnung standardisiert: Englischer Englisch
T:Urheber unbekannt Datum in der hier transkribierten schriftlichen Quelle: 1799
C:Urheber unbekannt
C:Datum in der hier transkribierten schriftlichen Quelle: 1799
L:1/8
M:3/8
K:D
V:1 treble 
V:1
 d | dd'b | a2 f | efg | g2 f | dd'b | agf | aa/g/f/e/ | d2!fine! :| !fermata!A | dfa | dfa | gec | %13
 d/c/d/e/d | dd/f/a/f/ | dd/f/a/f/ | gec | d2 :: G | GBd | d2 z | DFA | c2 z | GBd | d2 z | %25
 dd/c/B/A/ | G2!D.C.! :| %27

